X: 20698
T: Johnny Allen's
R: reel
M: 4/4
K: Dmixolydian
|:AAAB AGFD|DccB cedc|A2 BG AGFE|DGGG DGGG|
AGBG AGFG|Add^c defg|afge fded|dcAF G2 FG:|
|:Addc AGFG|Addg fdec|Addc AGFG|DGGG DGGG|
Addc AGFG|Addg fffg|afge fded|dcAF G2 FG:|
|:AAAg fded|dcAB cedc|AAAg fded|dcAF G2 FG|
AAAg fded|dcAB cdeg|afge fded|dcAF G2 FG:|

